X:347
T:Wissahickon Drive
R:Reel
C:Liz Carroll
O:USA
B:The Portland Collection
S:Henrik Norbeck ABC
S:My arrangement from various sources
Z:Transcription, minor arr., chords:Mike Long
M:C|
L:1/8
K:A
"A"EFAB cBAB|c2ef ecBA|"D"F2dF eFde|"D"fedf "E"ecBA|\
"A"EFAB cBAB|c2ef eAce|
"D"fagf "A"eAcA|[1 "E"BEGB "A"A2AF:|[2 "E"BEGB "A"A2\
|:ce|\
"A"a2ga baga|"D"fAde fagf|"A"eAce aece|
"A"aedc "E"BEGB|\
"A"a2ga baga|"D"fAde fagf|"A"eAce aedc|[1 "E"BEGB "A"A2:|[2 "E"BEGB "A"A2AF|]
